Yaru++/apps/16/gtk3-demo.svg

<svg height="16" viewBox="0 0 16 16" width="16" xmlns="http://www.w3.org/2000/svg">
  <path d="m8.0127092 15.5c.49538-.33335.00471.00001.5219365-.34588l5.4907723-3.87382v-.86331-5.3790802-.28777c-.767502-.53247-.148373-.10222-.501059-.35418l-4.9062032-3.47536973c-.5981646-.42232996-.00529.00003-.6054466-.42059-5.3602035 3.77142973-4.0443949 2.84319973-5.5951599 3.94022973-.421965.32698-.07829.0672-.4175493.33204v.2435.0221 5.3790802.86331c1.5524821 1.09562.2270871.16052.3757943.26564l5.1149778 3.60819.2714083.17709c.1889039.12892-.8173077-.56018.2505288.16878zm.334039-1.07637v-5.4897599l.041756-.0664.1461421-.0886 4.8226947-3.4089603v5.5118902zm-.6680793 0-5.0105896-3.54178v-5.4012202l5.0105896 3.5417803zm.250531-6.0874399-4.885327-3.4532303 4.9688363-3.5196497 4.9062028 3.4532397-4.7600621 3.3646903z" fill="#808080"/>
</svg>

<?xml version="1.0" encoding="UTF-8" standalone="no"?>
<svg
   xmlns:dc="http://purl.org/dc/elements/1.1/"
   xmlns:cc="http://creativecommons.org/ns#"
   xmlns:rdf="http://www.w3.org/1999/02/22-rdf-syntax-ns#"
   xmlns:svg="http://www.w3.org/2000/svg"
   xmlns="http://www.w3.org/2000/svg"
   xmlns:sodipodi="http://sodipodi.sourceforge.net/DTD/sodipodi-0.dtd"
   xmlns:inkscape="http://www.inkscape.org/namespaces/inkscape"
   width="16"
   height="16"
   version="1.1"
   viewBox="0 0 16 16"
   id="svg7"
   sodipodi:docname="gtk3-demo-symbolic.svg"
   inkscape:version="0.92.4 (5da689c313, 2019-01-14)">
  <metadata
     id="metadata11">
    <rdf:RDF>
      <cc:Work
         rdf:about="">
        <dc:format>image/svg+xml</dc:format>
        <dc:type
           rdf:resource="http://purl.org/dc/dcmitype/StillImage" />
      </cc:Work>
    </rdf:RDF>
  </metadata>
  <sodipodi:namedview
     pagecolor="#ffffff"
     bordercolor="#666666"
     borderopacity="1"
     objecttolerance="10"
     gridtolerance="10"
     guidetolerance="10"
     inkscape:pageopacity="0"
     inkscape:pageshadow="2"
     inkscape:window-width="793"
     inkscape:window-height="480"
     id="namedview9"
     showgrid="false"
     inkscape:zoom="14.75"
     inkscape:cx="8"
     inkscape:cy="8"
     inkscape:window-x="0"
     inkscape:window-y="27"
     inkscape:window-maximized="0"
     inkscape:current-layer="svg7" />
  <defs
     id="defs3">
    <style
       id="current-color-scheme"
       type="text/css">
   .ColorScheme-Text { color:#4d4d4d; }
  </style>
  </defs>
  <path
     class="ColorScheme-Text"
     d="m 8.0127092,15.5 c 0.49538,-0.33335 0.00471,10e-6 0.5219365,-0.34588 L 14.025418,11.2803 v -0.86331 -5.3790802 -0.28777 c -0.767502,-0.53247 -0.148373,-0.10222 -0.501059,-0.35418 L 8.6181558,0.92059007 c -0.5981646,-0.42232996 -0.00529,3e-5 -0.6054466,-0.42059 C 2.6525057,4.2714298 3.9683143,3.3431998 2.4175493,4.4402298 1.9955843,4.7672098 2.3392593,4.5074298 2,4.7722698 v 0.2435 0.0221 5.3790802 0.86331 c 1.5524821,1.09562 0.2270871,0.16052 0.3757943,0.26564 l 5.1149778,3.60819 0.2714083,0.17709 C 7.9510843,15.4601 6.9448727,14.771 8.0127092,15.49996 Z m 0.334039,-1.07637 V 8.9338701 l 0.041756,-0.0664 0.1461421,-0.0886 4.8226947,-3.4089603 V 10.8818 Z m -0.6680793,0 -5.0105896,-3.54178 V 5.4806298 L 7.6786689,9.0224101 Z M 7.9291999,8.3361901 3.0438729,4.8829598 8.0127092,1.3633101 12.918912,4.8165498 8.1588499,8.1812401 Z"
     style="fill:#808080;fill-opacity:1"
     id="path5" />
</svg>
